dist/img/blog/2.svg

<svg width="25" height="25" viewBox="0 0 25 25" fill="none" xmlns="http://www.w3.org/2000/svg">
<path d="M18.063 7.34304H16.5736V6.71357C16.573 4.66543 14.9073 3 12.86 3C10.8127 3 9.14679 4.66561 9.14679 6.71321V7.34254H7.65682C6.74179 7.34254 6 8.08443 6 8.99936V18.1401C6 19.7545 7.30804 21.0626 8.92243 21.0626H16.7974C18.4111 21.0626 19.7193 19.7545 19.7193 18.1408V9.00007C19.7198 8.08446 18.9781 7.34325 18.063 7.34325L18.063 7.34304ZM10.2712 6.71357C10.2712 5.28611 11.4325 4.12486 12.8599 4.12486C14.2873 4.12486 15.4486 5.28614 15.4486 6.71357V7.34289H10.2718V6.71357H10.2712ZM12.8599 14.765C10.8125 14.765 9.14668 13.0987 9.14668 11.0514C9.14668 10.7407 9.39849 10.4889 9.70918 10.4889C10.0199 10.4889 10.2717 10.7407 10.2717 11.0514C10.2717 12.4789 11.433 13.6401 12.8604 13.6401C14.2878 13.6401 15.4491 12.4789 15.4491 11.0514C15.4491 10.7407 15.7009 10.4889 16.0116 10.4889C16.3223 10.4889 16.5741 10.7407 16.5741 11.0514C16.573 13.0994 14.9073 14.765 12.8598 14.765H12.8599Z" fill="#202125"/>
</svg>

<svg width="25" height="25" viewBox="0 0 25 25" fill="none" xmlns="http://www.w3.org/2000/svg"><path d="M18.063 7.343h-1.49v-.63A3.718 3.718 0 0012.86 3a3.717 3.717 0 00-3.713 3.713v.63h-1.49C6.742 7.343 6 8.084 6 8.999v9.141a2.922 2.922 0 002.922 2.923h7.875a2.922 2.922 0 002.922-2.922V9c0-.917-.74-1.658-1.656-1.658zm-7.792-.63a2.592 2.592 0 012.589-2.588 2.592 2.592 0 012.589 2.589v.629h-5.177v-.63zm2.589 8.052a3.718 3.718 0 01-3.713-3.714.562.562 0 111.125 0 2.592 2.592 0 002.588 2.59 2.592 2.592 0 002.59-2.59.562.562 0 111.124 0 3.719 3.719 0 01-3.714 3.714z" fill="#202125"/></svg>
